X:1
T:An daran siempre
T:Gabriel Mena (?)
T:Source : Cancionero de Uppsala : Villancicos---Venetia---G.Scotto---1556. Editor : André Vierendeels (06/04/17).
T:Notes : Original clefs : C1,(C2 from m17 to m22), C3 Original note values have been halved Editorial accidentals above the staff
T:An daran siempre
T:©
T:©
C:Gabriel Mena (?)
Z:©
%%score [ 1 2 ]
L:1/8
Q:1/4=120
M:4/4
K:C
V:1 treble nm="Soprano" snm="S"
V:2 treble nm="Alto" snm="A"
V:1
 z8 | G2 G2 A4 | E2 G4 F2 | G2 C2 D4 | C4 z2 G2- | G2 G2 A2 c2- | c2 BA B2 A2 | G4 F4 | E4 z2 G2 | %9
w: |An da- ran|siem- pre mis|o- * *|sos, por|_ la glo- ria|_ _ _ en- que|se vie-|ron, llo-|
w: |Se a tan-|to su llo-||rar, por|_ el bien _|_ _ _ en que|se vie-|ron, que|
 G3 F E2 D2 | C2 F2 E2 C2 | D4 C2 G2 | G3 F E2 D2 | C2 F2 E2 D2- | DC C4 B,2 | C8 || c2 c2 B4 | %17
w: ran- * * do|pues la per- di-|e- ron, pues|la _ _ per-|di- e- ron pues-|* per- di e-|ron.|Lo ra- ran|
w: çie- * * guen|pues la per- di-|e- ron, pues|la _ _ per-|di- e- ron, pues|_ per- di- e-|ron.|Quan- to de-|
 A2 G4 FE | F2 CD EF G2- | GE F2 E2 D2 | C2 B,2 A,4 | G,2 G4 E2 | F2 G2 C2 G2 | A2 B2 c2 B2- | %24
w: en- con- tem- *|plar, en- * * * con-||* * tem-|plar, que el|tiem- po que la|go- za- * *|
w: pla- zer llo- *|ra- * * * * *||* * ra-|van, tan to|llo- ran de pe-||
 BA G4 F2 | G2 E2 F2 G2 | C4 D4 | C8 |] %28
w: |van, que la go-|za- *|van|
w: |sar, de pe- *||sar.|
V:2
 G2 G2 A4 | E2 G4 F2 | G2 C2 B,2 D2- | DC C4 B,2 | C8 | z2 C4 C2 | D2 E2 D2 F2- | FE E4 D2 | %8
w: An- da- ran|siem- pre mis|o- * * *||sos,|pol la|glo- ria en- que|_ _ se vie-|
w: Se a tan-|to su llo-|||rar,|por el|bien en- que se-|* * vie- *|
 E2 G2 G3 F | E2 D2 C2 F2 | E2 D3 C C2- | C2 B,2 C4 | z2 G2 G3 F | E2 D2 C2 F2 | E2 C2 D4 | C8 || %16
w: ron, llo- ran- *|* do pues la|per- di- * e-|* * ron,|llo- ran- *|* do pues la|per- di- e-|ron.|
w: ron, que çie- *|* guen pues la|per- di- * e-|* * ron.|que çie- *|* guen pues la|per- di- e-|ron.|
 z8 | C2 C2 B,4 | A,4 G,3 A, | B,C D2 G,2 B,2 | A,2 G,4 F,2 |"^#" G,8 | z2 G4 E2 | F2 G2 C2 D2- | %24
w: |Lo ra- ran|en- con- tem-|||plar|quel tiem-|* po que quan-|
w: |Quan- to de|pla- zer llo-|ra- * * * *||van|tan- to|llo- ran, tan- to|
 D2 B,2 C2 D2 | G,2 C2 D2 E2- | ED C4 B,2 | C8 |] %28
w: * do de pla-|zer que la ga-|* * * za-|van/|
w: _ llo- * *|ran, de pla- *||zer.|

